assets/jupyter/mono.svg

<svg viewBox="0 0 24 24" xmlns="http://www.w3.org/2000/svg"><path d="m7.157 22.201a1.784 1.799 0 0 1 -1.783 1.799 1.784 1.799 0 0 1 -1.784-1.799 1.784 1.799 0 0 1 1.784-1.799 1.784 1.799 0 0 1 1.783 1.799zm13.425-20.774a1.415 1.427 0 0 1 -1.415 1.428 1.415 1.427 0 0 1 -1.416-1.428 1.415 1.427 0 0 1 1.416-1.427 1.415 1.427 0 0 1 1.415 1.427zm-15.59 1.909a1.047 1.056 0 0 1 -1.046 1.054 1.047 1.056 0 0 1 -1.047-1.055 1.047 1.056 0 0 1 1.047-1.055 1.047 1.056 0 0 1 1.046 1.056zm7.336 1.517c3.769 0 7.06 1.38 8.768 3.424a9.363 9.363 0 0 0 -3.393-4.547 9.238 9.238 0 0 0 -5.377-1.728 9.238 9.238 0 0 0 -5.376 1.728 9.363 9.363 0 0 0 -3.394 4.547c1.713-2.04 5.004-3.424 8.772-3.424zm.001 13.295c-3.768 0-7.06-1.381-8.768-3.425a9.363 9.363 0 0 0 3.394 4.547 9.238 9.238 0 0 0 5.375 1.73 9.238 9.238 0 0 0 5.377-1.729 9.363 9.363 0 0 0 3.393-4.547c-1.712 2.044-5.003 3.425-8.772 3.425z"/></svg>

<svg xmlns="http://www.w3.org/2000/svg" viewBox="0 0 24 24"><path d="M7.157 22.201A1.784 1.799 0 0 1 5.374 24a1.784 1.799 0 0 1-1.784-1.799 1.784 1.799 0 0 1 1.784-1.799 1.784 1.799 0 0 1 1.783 1.799M20.582 1.427a1.415 1.427 0 0 1-1.415 1.428 1.415 1.427 0 0 1-1.416-1.428A1.415 1.427 0 0 1 19.167 0a1.415 1.427 0 0 1 1.415 1.427M4.992 3.336A1.047 1.056 0 0 1 3.946 4.39a1.047 1.056 0 0 1-1.047-1.055A1.047 1.056 0 0 1 3.946 2.28a1.047 1.056 0 0 1 1.046 1.056m7.336 1.517c3.769 0 7.06 1.38 8.768 3.424a9.36 9.36 0 0 0-3.393-4.547 9.24 9.24 0 0 0-5.377-1.728A9.24 9.24 0 0 0 6.95 3.73a9.36 9.36 0 0 0-3.394 4.547c1.713-2.04 5.004-3.424 8.772-3.424m.001 13.295c-3.768 0-7.06-1.381-8.768-3.425a9.36 9.36 0 0 0 3.394 4.547A9.24 9.24 0 0 0 12.33 21a9.24 9.24 0 0 0 5.377-1.729 9.36 9.36 0 0 0 3.393-4.547c-1.712 2.044-5.003 3.425-8.772 3.425z"/></svg>
